X:55
T: TRIUMPH DAS SCHWERT IN TAPFRER HAND
N: B0071
O: Europa, Mitteleuropa, Deutschland
R: Kriegs -, Sieges -, Soldaten - Lied
M: 4/4
L: 1/8
K: Bb
F2 | B3AB2c2 | d3cB2
B2 | c3ed2c2 | B2z4
F2 | B3AB2c2 | d3cB2
B2 | c3ed2c2 | B2z4
d2 | c2A2c2c2 | d2Bcd2
d2 | e3ee2d2 | d4c2z
F | B3BB2B2 | d3dd2
de | f3ed2c2 | B2z4

